client/src/img/edit.svg

<svg width="512" height="512" viewBox="0 0 512 512" fill="none" xmlns="http://www.w3.org/2000/svg">
<g clip-path="url(#clip0)">
<path d="M368 511.957H58.668C26.3047 511.957 0 485.652 0 453.289V143.957C0 111.594 26.3047 85.2891 58.668 85.2891H240C248.832 85.2891 256 92.457 256 101.289C256 110.121 248.832 117.289 240 117.289H58.668C43.9688 117.289 32 129.258 32 143.957V453.289C32 467.988 43.9688 479.957 58.668 479.957H368C382.699 479.957 394.668 467.988 394.668 453.289V271.957C394.668 263.125 401.836 255.957 410.668 255.957C419.5 255.957 426.668 263.105 426.668 271.957V453.289C426.668 485.652 400.363 511.957 368 511.957V511.957Z" fill="#08E789"/>
<path d="M187.137 340.82C182.934 340.82 178.836 339.156 175.828 336.129C172.031 332.352 170.41 326.91 171.457 321.684L186.539 246.25C187.156 243.137 188.691 240.297 190.91 238.078L411.863 17.1523C434.73 -5.71875 471.938 -5.71875 494.828 17.1523C505.898 28.2227 512 42.9453 512 58.625C512 74.3047 505.898 89.0234 494.805 100.098L273.879 321.047C271.66 323.285 268.801 324.801 265.707 325.418L190.293 340.5C189.246 340.715 188.18 340.82 187.137 340.82V340.82ZM262.57 309.738H262.785H262.57ZM216.961 257.281L207.551 304.426L254.676 294.996L472.191 77.4844C477.227 72.4258 480 65.75 480 58.625C480 51.5 477.227 44.8203 472.191 39.7656C461.824 29.375 444.906 29.375 434.477 39.7656L216.961 257.281Z" fill="#08E789"/>
<path d="M453.332 134.977C449.238 134.977 445.141 133.418 442.027 130.281L381.695 69.9297C375.445 63.6797 375.445 53.5469 381.695 47.2969C387.945 41.0469 398.078 41.0469 404.332 47.2969L464.66 107.648C470.91 113.898 470.91 124.031 464.66 130.281C461.523 133.398 457.43 134.977 453.332 134.977V134.977Z" fill="#08E789"/>
</g>
<defs>
<clipPath id="clip0">
<rect width="512" height="512" fill="white"/>
</clipPath>
</defs>
</svg>

<svg width="512" height="512" fill="none" xmlns="http://www.w3.org/2000/svg"><g clip-path="url(#clip0)" fill="#08E789"><path d="M368 511.957H58.668C26.305 511.957 0 485.652 0 453.289V143.957c0-32.363 26.305-58.668 58.668-58.668H240c8.832 0 16 7.168 16 16s-7.168 16-16 16H58.668c-14.7 0-26.668 11.969-26.668 26.668v309.332c0 14.699 11.969 26.668 26.668 26.668H368c14.699 0 26.668-11.969 26.668-26.668V271.957c0-8.832 7.168-16 16-16s16 7.148 16 16v181.332c0 32.363-26.305 58.668-58.668 58.668z"/><path d="M187.137 340.82a15.966 15.966 0 01-11.309-4.691c-3.797-3.777-5.418-9.219-4.371-14.445l15.082-75.434a15.952 15.952 0 014.371-8.172L411.863 17.152c22.867-22.87 60.075-22.87 82.965 0C505.898 28.222 512 42.945 512 58.625s-6.102 30.398-17.195 41.473L273.879 321.047a15.887 15.887 0 01-8.172 4.371L190.293 340.5a15.75 15.75 0 01-3.156.32zm75.433-31.082h.215-.215zm-45.609-52.457l-9.41 47.145 47.125-9.43L472.191 77.484C477.227 72.426 480 65.75 480 58.625c0-7.125-2.773-13.805-7.809-18.86-10.367-10.39-27.285-10.39-37.714 0L216.961 257.282z"/><path d="M453.332 134.977c-4.094 0-8.191-1.559-11.305-4.696L381.695 69.93c-6.25-6.25-6.25-16.383 0-22.633s16.383-6.25 22.637 0l60.328 60.351c6.25 6.25 6.25 16.383 0 22.633a16.04 16.04 0 01-11.328 4.696z"/></g><defs><clipPath id="clip0"><path fill="#fff" d="M0 0h512v512H0z"/></clipPath></defs></svg>
